src/assets/chat-user-icon.svg

<svg width="63" height="63" viewBox="0 0 63 63" fill="none" xmlns="http://www.w3.org/2000/svg">
<rect width="63" height="63" rx="31.5" fill="white"/>
<path d="M31.6459 31.5944C35.5637 31.5944 38.7396 28.5512 38.7396 24.7972C38.7396 21.0432 35.5637 18 31.6459 18C27.7282 18 24.5522 21.0432 24.5522 24.7972C24.5522 28.5512 27.7282 31.5944 31.6459 31.5944Z" fill="#01245D"/>
<path d="M42.2917 40.0859V45.1532H21V40.0859" fill="#01245D"/>
<path d="M42.2917 40.893V37.1716C42.2917 35.0237 40.3125 33.2937 37.8545 33.2937H25.4371C22.9792 33.2937 21 35.0237 21 37.1716V40.893" fill="#01245D"/>
</svg>

<svg width="63" height="63" fill="none" xmlns="http://www.w3.org/2000/svg"><rect width="63" height="63" rx="31.5" fill="#fff"/><path d="M31.646 31.594c3.918 0 7.094-3.043 7.094-6.797 0-3.754-3.176-6.797-7.094-6.797s-7.094 3.043-7.094 6.797c0 3.754 3.176 6.797 7.094 6.797zm10.646 8.492v5.067H21v-5.067" fill="#01245D"/><path d="M42.292 40.893v-3.721c0-2.148-1.98-3.878-4.438-3.878H25.438c-2.458 0-4.437 1.73-4.437 3.878v3.721" fill="#01245D"/></svg>
